X: 4572
T: Both Sides The Tweed
R: waltz
M: 3/4
K: Aminor
AB|"Am"c2 B3A|"C"c2 d2 e2|"F"a6-|a4 ag|"C"ge3 d2|"Am"c3d e2|"Em"G6-|"G"G4AB|
"Am"c2 B3A|"C"c2 d2 e2|"F"a6-|a4 ag|"C"ge3 (c/d/e)|"G"(d3c) AA|"Am"A6-|A4 eg|
"F"a3a a2|a3 g2e|"Em"g6-|"G"g3 a2g|"Am"(e3d) ce|"F"(d3c) AG|"Em"G6-|"G"G4 (AB)|
"Am"cB3 c2|"C"cd3 e2|"F"a6-|a3 (a2g)|"C"ge3 (c/d/e)|"G"(d3c) A>A|"Am"A6-|A4:|

